X:1
T:Ard'ogn'hora il cor
T:Luca Marenzio
T:Source : Il primo libro delle Villanelle a tre voci---Venetia---G.Vincenzi---1586. Editor : André Vierendeels (08/05/17).
T:Notes : Original clefs : C1, C2, F4 Editorial accidentals above the staff "Terza impressione"
T:Ard'ogn'hora il cor
T:©
T:©
C:Luca Marenzio
Z:©
%%score [ 1 2 3 ]
L:1/8
Q:1/4=120
M:4/4
K:C
V:1 treble nm="Soprano 1" snm="S 1"
V:2 treble nm="Soprano 2" snm="S 2"
V:3 bass nm="Bass" snm="B"
V:1
"^1)" B6 c2 | d4 e2 d2 | c4 B2 c2- | c2 d2 B4 | A8 :: d6 c2 | B4 c2 A2 | G2 c2 d2 B2 | A8 | A4 z4 | %10
w: Ard' ogn'|ho- ra'il cor|las- so'e mai|_ non mo-|re,|ahi ch'il|fo- co d'a-|mor non è mor-|ta-|le,|
w: S'ac- qua|spe- gnes- se|l'a- mo- ro-|* so'ar- do-|re,|io l'ha-|vri- a col|pian- ger mio già|spen-|to,|
 z4 d4 | e2 e2 d2 d2 | GABc d4- | d4 A4 | c4 B4 | A8 | G8 :| %17
w: e'a|spe- gner il suo'ar-|dor _ _ _ _|_ ac-|qua non|va-|le.|
w: e|que- sto don- na'è'il|mio _ _ _ _|_ mag-|gior tor-|men-|to.|
V:2
"^2)""^1)" D6 G2 | A4 c2 B2 | A4 ^G2 A2- | A2 A2 ^G4 | A8 :: B6 A2 | G4 G2 F2 | E2 A2 G2 G2 | ^F8 | %9
w: Ard' ogn'|ho- ra'il cor|las- so'e mai|_ non mo-|re,|ahi ch'il|fo- co d'a-|mor non è mor-|ta-|
w: Que- sto|ri- me- dio'il|fo- co'ha sol|_ d'A- mo-|re,|che chi|l'ac- cen- de,|spe- gner, lo puo|so-|
 ^F4 z2 B2 | c2 c2 B2 B2 | G4 z2 ^F2 | G2 G2 A2 A2 | B2 G4 F2 | E2 A3 G G2- | G2 ^FE F4 | G8 :| %17
w: le, e'a|spe- gner il suo'ar-|dor e'a|spe- gner il suo'ar-|dor ac- qua|non va- * *||le.|
w: lo, e|chi la pia- ga|fà, e|chi la pia- ga|fà sa- nar|puo'il dio- * *||lo.|
V:3
"^3)""^1)""^4)" G,6 E,2 | D,4 C,2 G,,2 | A,,4 E,2 F,2- | F,2 D,2 E,4 | A,,8 :: G,,6 A,,2 | %6
w: Ard' ogn|fo- ra'il cor|las- so'e mai|_ non mo-|re,|ahi ch'il|
w: Voi m'ac-|cen- de- st'e|mi pian- ga-|* ste'il co-|re,|nè puo|
 E,4 E,2 D,2 | C,2 A,,2 B,,3 C, | D,8 | D,4 G,4 | A,2 A,2 G,2 G,2 |"^#" C,D,E,F, G,2 D,2 | %12
w: fo- co d'a-|mor non è mor-|ta-|le, e'a|spe- gner il suo'ar-|dor _ _ _ _ e'a|
w: con sua bel-|lez- za'o'in- ge- gni|suo-|i, al-|tra Don- na sa-|nar- * * * lo, al-|
 E,2 E,2 D,2 D,2 | G,,A,,B,,C, D,4 | A,,4 B,,3 C, | D,8 | G,,8 :| %17
w: spe- gner il suo'ar-|dor _ _ _ _|ac- qua non|va-|le.|
w: tra Don- na sa-|nar- * * * *|lo se non|vo-|i.|

